X:211
T:Carlen[?] is your Daughter Ready. RH.211
R:Reel
S:Rev.R.Harrison’s MS,c1815,Cumbria
O:England
A:Temple Sowerby,Cumbria
Z:vmp.Simon Wilson. Review PJH, 2008.
M:2/4
L:1/8
Q:1/4=120
K:D
A2ef|eAcA|B2Gg|BGdB|\
A2eg|eAcA|BE E/E/E|GABG:|!
|:Aaaa|caca|Bggg|dgBG|\
Acge|cea2|gg (a/g/f/e/)|dgBG:|

